; G-Code generated by Simplify3D(R) Version 4.1.2
; Apr 11, 2022 at 5:19:06 PM
; Settings Summary
;   processName,Process1
;   applyToModels,[a]_guidler_mirror
;   profileName,Creality CR-10 (modified)
;   profileVersion,2018-01-19 08:00:00
;   baseProfile,
;   printMaterial,ABS
;   printQuality,High
;   printExtruders,
;   extruderName,Primary Extruder
;   extruderToolheadNumber,0
;   extruderDiameter,0.4
;   extruderAutoWidth,1
;   extruderWidth,0.48
;   extrusionMultiplier,1
;   extruderUseRetract,1
;   extruderRetractionDistance,5
;   extruderExtraRestartDistance,0
;   extruderRetractionZLift,0
;   extruderRetractionSpeed,2000
;   extruderUseCoasting,0
;   extruderCoastingDistance,0.2
;   extruderUseWipe,0
;   extruderWipeDistance,5
;   primaryExtruder,0
;   layerHeight,0.25
;   topSolidLayers,5
;   bottomSolidLayers,5
;   perimeterOutlines,4
;   printPerimetersInsideOut,1
;   startPointOption,2
;   startPointOriginX,0
;   startPointOriginY,0
;   sequentialIslands,0
;   spiralVaseMode,0
;   firstLayerHeightPercentage,120
;   firstLayerWidthPercentage,160
;   firstLayerUnderspeed,0.4
;   useRaft,0
;   raftExtruder,0
;   raftTopLayers,3
;   raftBaseLayers,2
;   raftOffset,3
;   raftSeparationDistance,0.14
;   raftTopInfill,100
;   aboveRaftSpeedMultiplier,0.3
;   useSkirt,1
;   skirtExtruder,0
;   skirtLayers,2
;   skirtOutlines,2
;   skirtOffset,4
;   usePrimePillar,0
;   primePillarExtruder,999
;   primePillarWidth,12
;   primePillarLocation,7
;   primePillarSpeedMultiplier,1
;   useOozeShield,0
;   oozeShieldExtruder,999
;   oozeShieldOffset,2
;   oozeShieldOutlines,1
;   oozeShieldSidewallShape,1
;   oozeShieldSidewallAngle,30
;   oozeShieldSpeedMultiplier,1
;   infillExtruder,0
;   internalInfillPattern,Fast Honeycomb
;   externalInfillPattern,Rectilinear
;   infillPercentage,60
;   outlineOverlapPercentage,15
;   infillExtrusionWidthPercentage,100
;   minInfillLength,5
;   infillLayerInterval,1
;   internalInfillAngles,0
;   overlapInternalInfillAngles,0
;   externalInfillAngles,45,-45
;   generateSupport,0
;   supportExtruder,0
;   supportInfillPercentage,40
;   supportExtraInflation,0
;   supportBaseLayers,0
;   denseSupportExtruder,0
;   denseSupportLayers,0
;   denseSupportInfillPercentage,70
;   supportLayerInterval,1
;   supportHorizontalPartOffset,0.3
;   supportUpperSeparationLayers,1
;   supportLowerSeparationLayers,1
;   supportType,0
;   supportGridSpacing,4
;   maxOverhangAngle,45
;   supportAngles,0
;   temperatureName,Primary Extruder,Heated Bed
;   temperatureNumber,0,0
;   temperatureSetpointCount,1,1
;   temperatureSetpointLayers,1,1
;   temperatureSetpointTemperatures,240,100
;   temperatureStabilizeAtStartup,1,1
;   temperatureHeatedBed,0,1
;   fanLayers,1
;   fanSpeeds,0
;   blipFanToFullPower,0
;   adjustSpeedForCooling,1
;   minSpeedLayerTime,15
;   minCoolingSpeedSlowdown,20
;   increaseFanForCooling,0
;   minFanLayerTime,45
;   maxCoolingFanSpeed,100
;   increaseFanForBridging,0
;   bridgingFanSpeed,100
;   use5D,1
;   relativeEdistances,0
;   allowEaxisZeroing,1
;   independentExtruderAxes,0
;   includeM10123,0
;   stickySupport,1
;   applyToolheadOffsets,0
;   gcodeXoffset,0
;   gcodeYoffset,0
;   gcodeZoffset,0
;   overrideMachineDefinition,1
;   machineTypeOverride,0
;   strokeXoverride,300
;   strokeYoverride,300
;   strokeZoverride,400
;   originOffsetXoverride,0
;   originOffsetYoverride,0
;   originOffsetZoverride,0
;   homeXdirOverride,-1
;   homeYdirOverride,-1
;   homeZdirOverride,-1
;   flipXoverride,1
;   flipYoverride,-1
;   flipZoverride,1
;   toolheadOffsets,0,0|0,0|0,0|0,0|0,0|0,0
;   overrideFirmwareConfiguration,1
;   firmwareTypeOverride,RepRap (Marlin/Repetier/Sprinter)
;   GPXconfigOverride,r2
;   baudRateOverride,115200
;   overridePrinterModels,1
;   printerModelsOverride
;   startingGcode,G28 ; home all axes,G1 Z5 F3000 ; lift,G1 X5 Y10 F1500 ; move to prime,G1 Z0.2 F3000 ; get ready to prime,G92 E0 ; reset extrusion distance,G1 Y80 E10 F600 ; prime nozzle,G1 Y100 F5000 ; quick wipe
;   layerChangeGcode,
;   retractionGcode,
;   toolChangeGcode,
;   endingGcode,G28 X0 ; home x axis,M106 S0 ; turn off cooling fan,M104 S0 ; turn off extruder,M140 S0 ; turn off bed,M84 ; disable motors
;   exportFileFormat,gcode
;   celebration,0
;   celebrationSong,Random Song
;   postProcessing,
;   defaultSpeed,2400
;   outlineUnderspeed,0.5
;   solidInfillUnderspeed,0.8
;   supportUnderspeed,0.8
;   rapidXYspeed,4800
;   rapidZspeed,1000
;   minBridgingArea,50
;   bridgingExtraInflation,0
;   bridgingExtrusionMultiplier,1
;   bridgingSpeedMultiplier,1
;   useFixedBridgingAngle,0
;   fixedBridgingAngle,0
;   applyBridgingToPerimeters,0
;   filamentDiameters,1.75|1.75|1.75|1.75|1.75|1.75
;   filamentPricesPerKg,46|46|46|46|46|46
;   filamentDensities,1.25|1.25|1.25|1.25|1.25|1.25
;   useMinPrintHeight,0
;   minPrintHeight,0
;   useMaxPrintHeight,0
;   maxPrintHeight,0
;   useDiaphragm,0
;   diaphragmLayerInterval,20
;   robustSlicing,1
;   mergeAllIntoSolid,0
;   onlyRetractWhenCrossingOutline,1
;   retractBetweenLayers,1
;   useRetractionMinTravel,0
;   retractionMinTravel,3
;   retractWhileWiping,0
;   onlyWipeOutlines,1
;   avoidCrossingOutline,0
;   maxMovementDetourFactor,3
;   toolChangeRetractionDistance,12
;   toolChangeExtraRestartDistance,-0.5
;   toolChangeRetractionSpeed,600
;   externalThinWallType,0
;   internalThinWallType,2
;   thinWallAllowedOverlapPercentage,10
;   singleExtrusionMinLength,1
;   singleExtrusionMinPrintingWidthPercentage,50
;   singleExtrusionMaxPrintingWidthPercentage,200
;   singleExtrusionEndpointExtension,0.2
;   horizontalSizeCompensation,0
G90
M82
M106 S0
M140 S100
M190 S100
M104 S240 T0
M109 S240 T0
G28 ; home all axes
G1 Z5 F3000 ; lift
G1 X5 Y10 F1500 ; move to prime
G1 Z0.2 F3000 ; get ready to prime
G92 E0 ; reset extrusion distance
G1 Y80 E10 F600 ; prime nozzle
G1 Y100 F5000 ; quick wipe
; process Process1
; layer 1, Z = 0.300
T0
G92 E0.0000
G1 E-5.0000 F2000
; feature skirt
; tool H0.300 W0.768
G1 Z0.300 F1000
G1 X136.365 Y124.147 F4800
G1 E0.0000 F2000
G92 E0.0000
G1 X136.725 Y123.780 E0.0492 F960
G1 X137.344 Y123.261 E0.1266
G1 X137.757 Y122.978 E0.1745
G1 X138.456 Y122.594 E0.2510
G1 X138.929 Y122.392 E0.3003
G1 X139.710 Y122.147 E0.3787
G1 X140.219 Y122.043 E0.4284
G1 X140.907 Y121.972 E0.4947
G1 X141.170 Y121.959 E0.5199
G1 X159.094 Y121.966 E2.2368
G1 X159.602 Y122.017 E2.2857
G1 X160.418 Y122.181 E2.3655
G1 X160.916 Y122.334 E2.4154
G1 X161.713 Y122.672 E2.4982
G1 X162.265 Y122.991 E2.5594
G1 X163.136 Y123.650 E2.6639
G1 X163.595 Y124.098 E2.7254
G1 X164.134 Y124.772 E2.8080
G1 X164.403 Y125.185 E2.8553
G1 X164.768 Y125.881 E2.9306
G1 X164.956 Y126.346 E2.9786
G1 X165.181 Y127.103 E3.0543
G1 X165.275 Y127.587 E3.1015
G1 X165.340 Y128.250 E3.1653
G1 X165.352 Y128.500 E3.1893
G1 X165.352 Y145.067 E4.7762
G1 X165.335 Y145.366 E4.8050
G1 X165.207 Y146.455 E4.9100
G1 X165.101 Y146.944 E4.9579
G1 X164.822 Y147.815 E5.0455
G1 X164.671 Y148.186 E5.0838
G1 X164.283 Y148.958 E5.1667
G1 X164.076 Y149.300 E5.2049
G1 X163.635 Y149.918 E5.2776
G1 X163.520 Y150.067 E5.2956
G1 X162.550 Y151.234 E5.4410
G1 X162.550 Y158.935 E6.1787
G1 X163.520 Y160.102 E6.3241
G1 X163.635 Y160.251 E6.3421
G1 X164.076 Y160.868 E6.4148
G1 X164.283 Y161.211 E6.4531
G1 X164.671 Y161.983 E6.5359
G1 X164.822 Y162.354 E6.5742
G1 X165.086 Y163.177 E6.6571
G1 X165.178 Y163.566 E6.6953
G1 X165.312 Y164.420 E6.7781
G1 X165.343 Y164.818 E6.8163
G1 X165.345 Y170.944 E7.4032
G1 X165.250 Y171.641 E7.4706
G1 X164.961 Y172.677 E7.5736
G1 X164.672 Y173.336 E7.6425
G1 X164.194 Y174.115 E7.7301
G1 X163.811 Y174.597 E7.7891
G1 X163.194 Y175.209 E7.8723
G1 X162.704 Y175.590 E7.9317
G1 X161.868 Y176.091 E8.0251
G1 X161.074 Y176.403 E8.1068
G1 X160.009 Y176.630 E8.2111
G1 X159.471 Y176.687 E8.2630
G1 X140.620 Y176.687 E10.0687
G1 X140.260 Y176.661 E10.1032
G1 X139.466 Y176.550 E10.1800
G1 X138.778 Y176.352 E10.2486
G1 X137.897 Y175.962 E10.3409
G1 X137.316 Y175.606 E10.4062
G1 X136.566 Y174.997 E10.4987
G1 X136.063 Y174.451 E10.5698
G1 X135.457 Y173.568 E10.6724
G1 X135.141 Y172.937 E10.7400
G1 X134.859 Y172.109 E10.8237
G1 X134.737 Y171.561 E10.8776
G1 X134.663 Y170.892 E10.9420
G1 X134.648 Y170.606 E10.9695
G1 X134.657 Y164.813 E11.5244
G1 X134.688 Y164.419 E11.5623
G1 X134.822 Y163.566 E11.6449
G1 X134.914 Y163.177 E11.6832
G1 X135.178 Y162.354 E11.7661
G1 X135.329 Y161.983 E11.8043
G1 X135.695 Y161.255 E11.8824
G1 X135.845 Y160.996 E11.9111
G1 X136.128 Y160.565 E11.9605
G1 X136.285 Y160.352 E11.9859
G1 X137.450 Y158.924 E12.1623
G1 X137.450 Y151.234 E12.8990
G1 X136.480 Y150.067 E13.0444
G1 X136.365 Y149.918 E13.0624
G1 X135.924 Y149.301 E13.1351
G1 X135.717 Y148.958 E13.1734
G1 X135.329 Y148.185 E13.2562
G1 X135.178 Y147.815 E13.2945
G1 X134.899 Y146.944 E13.3821
G1 X134.793 Y146.456 E13.4300
G1 X134.665 Y145.366 E13.5351
G1 X134.648 Y145.067 E13.5638
G1 X134.648 Y128.500 E15.1508
G1 X134.660 Y128.249 E15.1748
G1 X134.725 Y127.589 E15.2383
G1 X134.817 Y127.112 E15.2849
G1 X135.037 Y126.363 E15.3597
G1 X135.225 Y125.898 E15.4077
G1 X135.592 Y125.192 E15.4839
G1 X135.865 Y124.774 E15.5318
G1 X136.365 Y124.147 E15.6086
G92 E0.0000
G1 E-5.0000 F2000
G1 X136.941 Y124.657 F4800
G1 E0.0000 F2000
G92 E0.0000
G1 X137.247 Y124.344 E0.0419 F960
G1 X137.808 Y123.874 E0.1120
G1 X138.160 Y123.633 E0.1528
G1 X138.792 Y123.285 E0.2220
G1 X139.195 Y123.113 E0.2640
G1 X139.903 Y122.892 E0.3349
G1 X140.336 Y122.803 E0.3773
G1 X140.966 Y122.738 E0.4380
G1 X141.190 Y122.727 E0.4594
G1 X159.055 Y122.734 E2.1708
G1 X159.488 Y122.777 E2.2124
G1 X160.229 Y122.926 E2.2848
G1 X160.652 Y123.057 E2.3273
G1 X161.369 Y123.360 E2.4018
G1 X161.840 Y123.632 E2.4539
G1 X162.634 Y124.233 E2.5493
G1 X163.025 Y124.614 E2.6016
G1 X163.511 Y125.222 E2.6761
G1 X163.740 Y125.574 E2.7164
G1 X164.070 Y126.205 E2.7845
G1 X164.231 Y126.600 E2.8254
G1 X164.434 Y127.286 E2.8940
G1 X164.514 Y127.698 E2.9341
G1 X164.574 Y128.306 E2.9927
G1 X164.584 Y128.518 E3.0130
G1 X164.584 Y145.045 E4.5961
G1 X164.569 Y145.300 E4.6205
G1 X164.449 Y146.329 E4.7198
G1 X164.359 Y146.745 E4.7606
G1 X164.100 Y147.552 E4.8418
G1 X163.971 Y147.868 E4.8744
G1 X163.610 Y148.587 E4.9515
G1 X163.434 Y148.878 E4.9841
G1 X163.018 Y149.460 E5.0526
G1 X162.921 Y149.587 E5.0679
G1 X161.797 Y150.939 E5.2364
G1 X161.782 Y150.968 E5.2395
G1 X161.782 Y159.158 E6.0240
G1 X161.790 Y159.222 E6.0302
G1 X162.921 Y160.582 E6.1997
G1 X163.018 Y160.709 E6.2150
G1 X163.434 Y161.291 E6.2835
G1 X163.610 Y161.582 E6.3160
G1 X163.971 Y162.301 E6.3932
G1 X164.100 Y162.617 E6.4258
G1 X164.346 Y163.383 E6.5029
G1 X164.424 Y163.714 E6.5355
G1 X164.549 Y164.509 E6.6126
G1 X164.575 Y164.848 E6.6451
G1 X164.577 Y170.892 E7.2240
G1 X164.496 Y171.485 E7.2814
G1 X164.235 Y172.419 E7.3742
G1 X163.990 Y172.980 E7.4329
G1 X163.563 Y173.674 E7.5109
G1 X163.238 Y174.084 E7.5611
G1 X162.686 Y174.631 E7.6355
G1 X162.269 Y174.955 E7.6861
G1 X161.527 Y175.399 E7.7689
G1 X160.852 Y175.665 E7.8384
G1 X159.888 Y175.870 E7.9328
G1 X159.430 Y175.919 E7.9770
G1 X140.647 Y175.919 E9.7762
G1 X140.340 Y175.897 E9.8056
G1 X139.626 Y175.797 E9.8747
G1 X139.040 Y175.629 E9.9331
G1 X138.255 Y175.280 E10.0154
G1 X137.760 Y174.977 E10.0709
G1 X137.093 Y174.435 E10.1533
G1 X136.665 Y173.971 E10.2138
G1 X136.120 Y173.177 E10.3061
G1 X135.851 Y172.640 E10.3636
G1 X135.600 Y171.902 E10.4383
G1 X135.496 Y171.435 E10.4841
G1 X135.429 Y170.830 E10.5424
G1 X135.416 Y170.585 E10.5659
G1 X135.425 Y164.844 E11.1159
G1 X135.452 Y164.508 E11.1481
G1 X135.576 Y163.714 E11.2250
G1 X135.654 Y163.383 E11.2576
G1 X135.900 Y162.616 E11.3348
G1 X136.029 Y162.302 E11.3674
G1 X136.371 Y161.620 E11.4404
G1 X136.499 Y161.399 E11.4649
G1 X136.759 Y161.004 E11.5102
G1 X136.892 Y160.822 E11.5318
G1 X138.218 Y159.198 E11.7326
G1 X138.218 Y150.968 E12.5210
G1 X138.203 Y150.939 E12.5241
G1 X137.079 Y149.587 E12.6925
G1 X136.982 Y149.460 E12.7078
G1 X136.566 Y148.878 E12.7763
G1 X136.390 Y148.587 E12.8089
G1 X136.029 Y147.867 E12.8860
G1 X135.900 Y147.553 E12.9186
G1 X135.641 Y146.745 E12.9998
G1 X135.551 Y146.329 E13.0406
G1 X135.431 Y145.300 E13.1399
G1 X135.416 Y145.045 E13.1643
G1 X135.416 Y128.518 E14.7474
G1 X135.426 Y128.305 E14.7678
G1 X135.485 Y127.700 E14.8261
G1 X135.564 Y127.294 E14.8657
G1 X135.763 Y126.615 E14.9335
G1 X135.923 Y126.219 E14.9744
G1 X136.256 Y125.580 E15.0434
G1 X136.488 Y125.224 E15.0841
G1 X136.941 Y124.657 E15.1537
G92 E0.0000
G1 E-5.0000 F2000
; feature inner perimeter
G1 X142.744 Y136.125 F4800
G1 E0.0000 F2000
G92 E0.0000
G1 X143.427 Y136.430 E0.0717 F720
G1 X143.883 Y136.580 E0.1176
G1 X144.351 Y136.681 E0.1635
G1 X144.870 Y136.738 E0.2136
G1 X145.568 Y136.721 E0.2804
G1 X146.084 Y136.636 E0.3305
G1 X146.547 Y136.511 E0.3764
G1 X146.994 Y136.338 E0.4223
G1 X147.421 Y136.120 E0.4682
G1 X147.823 Y135.859 E0.5142
G1 X148.196 Y135.559 E0.5600
G1 X148.536 Y135.221 E0.6060
G1 X148.867 Y134.816 E0.6561
G1 X149.231 Y134.221 E0.7229
G1 X149.441 Y133.742 E0.7729
G1 X149.588 Y133.286 E0.8189
G1 X149.686 Y132.817 E0.8648
G1 X149.741 Y132.287 E0.9158
G1 X149.713 Y131.572 E0.9843
G1 X149.598 Y130.947 E1.0452
G1 X149.322 Y130.087 E1.1317
G1 X157.262 Y130.087 E1.8922
G1 X157.262 Y144.940 E3.3149
G1 X156.041 Y146.408 E3.4978
G1 X143.969 Y146.408 E4.6542
G1 X142.825 Y145.044 E4.8247
G1 X142.748 Y144.934 E4.8376
G1 X142.744 Y136.125 E5.6814
G92 E0.0000
G1 E-5.0000 F2000
G1 X155.950 Y163.664 F4800
G1 E0.0000 F2000
G92 E0.0000
G1 X157.175 Y165.125 E0.1827 F720
G1 X157.262 Y165.249 E0.1972
G1 X157.262 Y168.747 E0.5322
G1 X142.738 Y168.747 E1.9235
G1 X142.738 Y167.632 E2.0302
G1 X153.341 Y167.632 E3.0459
G1 X155.950 Y163.664 E3.5008
G1 X156.581 Y163.222 F4800
G92 E0.0000
G1 X157.784 Y164.656 E0.1793 F720
G1 X157.936 Y164.871 E0.2045
G1 X157.992 Y165.009 E0.2188
G1 X158.021 Y165.168 E0.2342
G1 X158.030 Y165.312 E0.2480
G1 X158.030 Y169.515 E0.6506
G1 X141.970 Y169.515 E2.1890
G1 X141.970 Y166.864 E2.4429
G1 X152.927 Y166.864 E3.4924
G1 X155.917 Y162.315 E4.0140
G1 X156.581 Y163.222 E4.1216
G92 E0.0000
G1 E-5.0000 F2000
G1 X145.228 Y162.485 F4800
G1 E0.0000 F2000
G92 E0.0000
G1 X142.463 Y166.691 E0.4821 F720
G1 X141.970 Y166.544 E0.5314
G1 X141.970 Y165.312 E0.6495
G1 X141.979 Y165.168 E0.6633
G1 X142.003 Y165.036 E0.6761
G1 X142.035 Y164.934 E0.6863
G1 X142.131 Y164.771 E0.7044
G1 X143.496 Y163.125 E0.9093
G1 X143.958 Y162.485 E0.9849
G1 X145.228 Y162.485 E1.1065
G92 E0.0000
G1 E-5.0000 F2000
G1 X143.586 Y147.176 F4800
G1 E0.0000 F2000
G92 E0.0000
G1 X143.419 Y146.947 E0.0271 F720
G1 X142.216 Y145.513 E0.2064
G1 X142.064 Y145.298 E0.2316
G1 X142.024 Y145.199 E0.2419
G1 X141.989 Y145.069 E0.2548
G1 X141.980 Y145.007 E0.2608
G1 X141.975 Y134.494 E1.2678
G1 X142.670 Y135.115 E1.3571
G1 X142.993 Y135.350 E1.3954
G1 X143.339 Y135.550 E1.4337
G1 X143.704 Y135.713 E1.4720
G1 X144.084 Y135.837 E1.5103
G1 X144.475 Y135.922 E1.5486
G1 X144.903 Y135.969 E1.5898
G1 X145.496 Y135.954 E1.6466
G1 X145.921 Y135.885 E1.6879
G1 X146.307 Y135.780 E1.7262
G1 X146.680 Y135.636 E1.7645
G1 X147.036 Y135.454 E1.8028
G1 X147.372 Y135.237 E1.8411
G1 X147.683 Y134.986 E1.8794
G1 X147.966 Y134.704 E1.9177
G1 X148.240 Y134.370 E1.9590
G1 X148.549 Y133.864 E2.0158
G1 X148.722 Y133.470 E2.0570
G1 X148.844 Y133.089 E2.0954
G1 X148.926 Y132.698 E2.1336
G1 X148.971 Y132.263 E2.1756
G1 X148.948 Y131.657 E2.2336
G1 X148.851 Y131.135 E2.2845
G1 X148.722 Y130.731 E2.3251
G1 X148.549 Y130.337 E2.3664
G1 X147.927 Y129.319 E2.4806
G1 X158.030 Y129.319 E3.4484
G1 X158.030 Y144.857 E4.9368
G1 X158.021 Y145.001 E4.9506
G1 X157.997 Y145.133 E4.9634
G1 X157.963 Y145.241 E4.9742
G1 X157.883 Y145.381 E4.9897
G1 X157.795 Y145.500 E5.0039
G1 X156.401 Y147.176 E5.2127
G1 X143.586 Y147.176 E6.4402
G1 X142.814 Y147.421 F4800
G92 E0.0000
G1 X141.607 Y145.982 E0.1800 F720
G1 X141.412 Y145.706 E0.2123
G1 X141.366 Y145.618 E0.2218
G1 X141.295 Y145.446 E0.2397
G1 X141.235 Y145.225 E0.2616
G1 X141.212 Y145.063 E0.2773
G1 X141.205 Y128.551 E1.8589
G1 X144.105 Y128.551 E2.1367
G1 X144.222 Y129.098 E2.1903
G1 X143.689 Y129.336 E2.2461
