; G-Code generated by Simplify3D(R) Version 4.1.2
; Apr 11, 2022 at 7:38:42 PM
; Settings Summary
;   processName,Process1
;   applyToModels,[a]_5x4mm_spacer
;   profileName,Creality CR-10 (modified)
;   profileVersion,2018-01-19 08:00:00
;   baseProfile,
;   printMaterial,ABS
;   printQuality,High
;   printExtruders,
;   extruderName,Primary Extruder
;   extruderToolheadNumber,0
;   extruderDiameter,0.4
;   extruderAutoWidth,1
;   extruderWidth,0.48
;   extrusionMultiplier,1
;   extruderUseRetract,1
;   extruderRetractionDistance,5
;   extruderExtraRestartDistance,0
;   extruderRetractionZLift,0
;   extruderRetractionSpeed,2000
;   extruderUseCoasting,0
;   extruderCoastingDistance,0.2
;   extruderUseWipe,0
;   extruderWipeDistance,5
;   primaryExtruder,0
;   layerHeight,0.25
;   topSolidLayers,5
;   bottomSolidLayers,5
;   perimeterOutlines,4
;   printPerimetersInsideOut,1
;   startPointOption,2
;   startPointOriginX,0
;   startPointOriginY,0
;   sequentialIslands,0
;   spiralVaseMode,0
;   firstLayerHeightPercentage,100
;   firstLayerWidthPercentage,160
;   firstLayerUnderspeed,0.4
;   useRaft,0
;   raftExtruder,0
;   raftTopLayers,3
;   raftBaseLayers,2
;   raftOffset,3
;   raftSeparationDistance,0.14
;   raftTopInfill,100
;   aboveRaftSpeedMultiplier,0.3
;   useSkirt,1
;   skirtExtruder,0
;   skirtLayers,2
;   skirtOutlines,2
;   skirtOffset,4
;   usePrimePillar,0
;   primePillarExtruder,999
;   primePillarWidth,12
;   primePillarLocation,7
;   primePillarSpeedMultiplier,1
;   useOozeShield,0
;   oozeShieldExtruder,999
;   oozeShieldOffset,2
;   oozeShieldOutlines,1
;   oozeShieldSidewallShape,1
;   oozeShieldSidewallAngle,30
;   oozeShieldSpeedMultiplier,1
;   infillExtruder,0
;   internalInfillPattern,Fast Honeycomb
;   externalInfillPattern,Rectilinear
;   infillPercentage,60
;   outlineOverlapPercentage,15
;   infillExtrusionWidthPercentage,100
;   minInfillLength,5
;   infillLayerInterval,1
;   internalInfillAngles,0
;   overlapInternalInfillAngles,0
;   externalInfillAngles,45,-45
;   generateSupport,0
;   supportExtruder,0
;   supportInfillPercentage,40
;   supportExtraInflation,0
;   supportBaseLayers,0
;   denseSupportExtruder,0
;   denseSupportLayers,0
;   denseSupportInfillPercentage,70
;   supportLayerInterval,1
;   supportHorizontalPartOffset,0.3
;   supportUpperSeparationLayers,1
;   supportLowerSeparationLayers,1
;   supportType,0
;   supportGridSpacing,4
;   maxOverhangAngle,45
;   supportAngles,0
;   temperatureName,Primary Extruder,Heated Bed
;   temperatureNumber,0,0
;   temperatureSetpointCount,1,1
;   temperatureSetpointLayers,1,1
;   temperatureSetpointTemperatures,240,100
;   temperatureStabilizeAtStartup,1,1
;   temperatureHeatedBed,0,1
;   fanLayers,1
;   fanSpeeds,0
;   blipFanToFullPower,0
;   adjustSpeedForCooling,1
;   minSpeedLayerTime,15
;   minCoolingSpeedSlowdown,20
;   increaseFanForCooling,0
;   minFanLayerTime,45
;   maxCoolingFanSpeed,100
;   increaseFanForBridging,0
;   bridgingFanSpeed,100
;   use5D,1
;   relativeEdistances,0
;   allowEaxisZeroing,1
;   independentExtruderAxes,0
;   includeM10123,0
;   stickySupport,1
;   applyToolheadOffsets,0
;   gcodeXoffset,0
;   gcodeYoffset,0
;   gcodeZoffset,0
;   overrideMachineDefinition,1
;   machineTypeOverride,0
;   strokeXoverride,300
;   strokeYoverride,300
;   strokeZoverride,400
;   originOffsetXoverride,0
;   originOffsetYoverride,0
;   originOffsetZoverride,0
;   homeXdirOverride,-1
;   homeYdirOverride,-1
;   homeZdirOverride,-1
;   flipXoverride,1
;   flipYoverride,-1
;   flipZoverride,1
;   toolheadOffsets,0,0|0,0|0,0|0,0|0,0|0,0
;   overrideFirmwareConfiguration,1
;   firmwareTypeOverride,RepRap (Marlin/Repetier/Sprinter)
;   GPXconfigOverride,r2
;   baudRateOverride,115200
;   overridePrinterModels,1
;   printerModelsOverride
;   startingGcode,G28 ; home all axes,G1 Z5 F3000 ; lift,G1 X5 Y10 F1500 ; move to prime,G1 Z0.2 F3000 ; get ready to prime,G92 E0 ; reset extrusion distance,G1 Y80 E10 F600 ; prime nozzle,G1 Y100 F5000 ; quick wipe
;   layerChangeGcode,
;   retractionGcode,
;   toolChangeGcode,
;   endingGcode,G28 X0 ; home x axis,M106 S0 ; turn off cooling fan,M104 S0 ; turn off extruder,M140 S0 ; turn off bed,M84 ; disable motors
;   exportFileFormat,gcode
;   celebration,0
;   celebrationSong,Random Song
;   postProcessing,
;   defaultSpeed,2400
;   outlineUnderspeed,0.5
;   solidInfillUnderspeed,0.8
;   supportUnderspeed,0.8
;   rapidXYspeed,4800
;   rapidZspeed,1000
;   minBridgingArea,50
;   bridgingExtraInflation,0
;   bridgingExtrusionMultiplier,1
;   bridgingSpeedMultiplier,1
;   useFixedBridgingAngle,0
;   fixedBridgingAngle,0
;   applyBridgingToPerimeters,0
;   filamentDiameters,1.75|1.75|1.75|1.75|1.75|1.75
;   filamentPricesPerKg,46|46|46|46|46|46
;   filamentDensities,1.25|1.25|1.25|1.25|1.25|1.25
;   useMinPrintHeight,0
;   minPrintHeight,0
;   useMaxPrintHeight,0
;   maxPrintHeight,0
;   useDiaphragm,0
;   diaphragmLayerInterval,20
;   robustSlicing,1
;   mergeAllIntoSolid,0
;   onlyRetractWhenCrossingOutline,1
;   retractBetweenLayers,1
;   useRetractionMinTravel,0
;   retractionMinTravel,3
;   retractWhileWiping,0
;   onlyWipeOutlines,1
;   avoidCrossingOutline,0
;   maxMovementDetourFactor,3
;   toolChangeRetractionDistance,12
;   toolChangeExtraRestartDistance,-0.5
;   toolChangeRetractionSpeed,600
;   externalThinWallType,0
;   internalThinWallType,2
;   thinWallAllowedOverlapPercentage,10
;   singleExtrusionMinLength,1
;   singleExtrusionMinPrintingWidthPercentage,50
;   singleExtrusionMaxPrintingWidthPercentage,200
;   singleExtrusionEndpointExtension,0.2
;   horizontalSizeCompensation,0
G90
M82
M106 S0
M140 S100
M190 S100
M104 S240 T0
M109 S240 T0
G28 ; home all axes
G1 Z5 F3000 ; lift
G1 X5 Y10 F1500 ; move to prime
G1 Z0.2 F3000 ; get ready to prime
G92 E0 ; reset extrusion distance
G1 Y80 E10 F600 ; prime nozzle
G1 Y100 F5000 ; quick wipe
; process Process1
; layer 1, Z = 0.250
T0
G92 E0.0000
G1 E-5.0000 F2000
; feature skirt
; tool H0.250 W0.768
G1 Z0.250 F1000
G1 X143.166 Y143.611 F4800
G1 E0.0000 F2000
G92 E0.0000
G1 X143.699 Y143.088 E0.0596 F342
G1 X143.898 Y142.911 E0.0809
G1 X144.449 Y142.472 E0.1371
G1 X144.671 Y142.313 E0.1589
G1 X145.277 Y141.927 E0.2163
G1 X145.507 Y141.797 E0.2373
G1 X146.118 Y141.491 E0.2919
G1 X146.359 Y141.385 E0.3129
G1 X147.014 Y141.137 E0.3688
G1 X147.268 Y141.055 E0.3901
G1 X147.946 Y140.875 E0.4461
G1 X148.207 Y140.820 E0.4674
G1 X148.900 Y140.712 E0.5234
G1 X149.166 Y140.684 E0.5447
G1 X149.867 Y140.648 E0.6007
G1 X150.133 Y140.648 E0.6220
G1 X150.878 Y140.687 E0.6816
G1 X151.232 Y140.730 E0.7100
G1 X152.292 Y140.933 E0.7962
G1 X152.636 Y141.024 E0.8246
G1 X153.343 Y141.265 E0.8842
G1 X153.591 Y141.364 E0.9055
G1 X154.228 Y141.657 E0.9615
G1 X154.464 Y141.781 E0.9828
G1 X155.068 Y142.139 E1.0388
G1 X155.290 Y142.287 E1.0601
G1 X155.853 Y142.705 E1.1161
G1 X156.059 Y142.875 E1.1374
G1 X156.576 Y143.349 E1.1934
G1 X156.763 Y143.540 E1.2147
G1 X157.258 Y144.098 E1.2743
G1 X157.475 Y144.380 E1.3027
G1 X158.073 Y145.279 E1.3889
G1 X158.249 Y145.589 E1.4173
G1 X158.573 Y146.261 E1.4769
G1 X158.676 Y146.507 E1.4982
G1 X158.914 Y147.167 E1.5542
G1 X158.991 Y147.423 E1.5755
G1 X159.159 Y148.104 E1.6315
G1 X159.209 Y148.366 E1.6528
G1 X159.312 Y149.105 E1.7123
G1 X159.336 Y149.460 E1.7407
G1 X159.336 Y150.540 E1.8270
G1 X159.312 Y150.895 E1.8554
G1 X159.209 Y151.634 E1.9149
G1 X159.159 Y151.896 E1.9362
G1 X158.991 Y152.577 E1.9922
G1 X158.914 Y152.833 E2.0135
G1 X158.676 Y153.493 E2.0695
G1 X158.573 Y153.739 E2.0908
G1 X158.249 Y154.411 E2.1504
G1 X158.073 Y154.721 E2.1788
G1 X157.450 Y155.657 E2.2686
G1 X157.173 Y156.005 E2.3041
G1 X156.399 Y156.820 E2.3939
G1 X156.136 Y157.061 E2.4223
G1 X155.553 Y157.526 E2.4818
G1 X155.336 Y157.681 E2.5031
G1 X154.708 Y158.084 E2.5627
G1 X154.396 Y158.255 E2.5911
G1 X153.415 Y158.706 E2.6773
G1 X153.082 Y158.833 E2.7057
G1 X152.368 Y159.048 E2.7653
G1 X152.109 Y159.112 E2.7866
G1 X151.376 Y159.253 E2.8461
G1 X151.023 Y159.296 E2.8745
G1 X149.944 Y159.352 E2.9607
G1 X149.588 Y159.346 E2.9891
G1 X148.845 Y159.281 E3.0487
G1 X148.580 Y159.245 E3.0700
G1 X147.891 Y159.112 E3.1260
G1 X147.632 Y159.048 E3.1473
G1 X146.961 Y158.845 E3.2033
G1 X146.710 Y158.755 E3.2246
G1 X146.021 Y158.467 E3.2842
G1 X145.704 Y158.307 E3.3126
G1 X144.775 Y157.756 E3.3988
G1 X144.482 Y157.554 E3.4272
G1 X143.898 Y157.088 E3.4868
G1 X143.699 Y156.912 E3.5081
G1 X143.198 Y156.420 E3.5641
G1 X143.018 Y156.223 E3.5854
G1 X142.571 Y155.682 E3.6414
G1 X142.412 Y155.468 E3.6627
G1 X142.023 Y154.884 E3.7187
G1 X141.887 Y154.654 E3.7400
G1 X141.561 Y154.033 E3.7960
G1 X141.450 Y153.790 E3.8173
G1 X141.189 Y153.139 E3.8733
G1 X141.103 Y152.886 E3.8946
G1 X140.912 Y152.211 E3.9506
G1 X140.853 Y151.951 E3.9719
G1 X140.732 Y151.260 E4.0279
G1 X140.700 Y150.995 E4.0492
G1 X140.649 Y150.250 E4.1088
G1 X140.649 Y149.895 E4.1372
G1 X140.723 Y148.817 E4.2234
G1 X140.772 Y148.465 E4.2518
G1 X140.926 Y147.734 E4.3114
G1 X140.994 Y147.477 E4.3327
G1 X141.208 Y146.808 E4.3887
G1 X141.303 Y146.559 E4.4100
G1 X141.585 Y145.917 E4.4660
G1 X141.705 Y145.678 E4.4873
G1 X142.075 Y145.030 E4.5469
G1 X142.272 Y144.734 E4.5753
G1 X142.930 Y143.878 E4.6615
G1 X143.166 Y143.611 E4.6899
G92 E0.0000
G1 E-5.0000 F2000
G1 X143.724 Y144.141 F4800
G1 E0.0000 F2000
G92 E0.0000
G1 X144.223 Y143.650 E0.0559 F342
G1 X144.393 Y143.499 E0.0740
G1 X144.912 Y143.085 E0.1270
G1 X145.101 Y142.950 E0.1456
G1 X145.674 Y142.586 E0.1997
G1 X145.869 Y142.475 E0.2177
G1 X146.445 Y142.186 E0.2691
G1 X146.650 Y142.096 E0.2870
G1 X147.267 Y141.862 E0.3397
G1 X147.484 Y141.792 E0.3578
G1 X148.124 Y141.623 E0.4107
G1 X148.346 Y141.576 E0.4288
G1 X149.000 Y141.474 E0.4816
G1 X149.226 Y141.450 E0.4998
G1 X149.887 Y141.416 E0.5526
G1 X150.113 Y141.416 E0.5707
G1 X150.812 Y141.452 E0.6265
G1 X151.113 Y141.489 E0.6507
G1 X152.121 Y141.683 E0.7327
G1 X152.414 Y141.760 E0.7569
G1 X153.077 Y141.985 E0.8127
G1 X153.287 Y142.070 E0.8309
G1 X153.889 Y142.346 E0.8837
G1 X154.090 Y142.452 E0.9018
G1 X154.659 Y142.790 E0.9546
G1 X154.848 Y142.915 E0.9728
G1 X155.380 Y143.310 E1.0256
G1 X155.555 Y143.454 E1.0437
G1 X156.042 Y143.902 E1.0966
G1 X156.202 Y144.064 E1.1147
G1 X156.666 Y144.588 E1.1705
G1 X156.850 Y144.827 E1.1947
G1 X157.419 Y145.683 E1.2767
G1 X157.569 Y145.946 E1.3009
G1 X157.872 Y146.576 E1.3567
G1 X157.960 Y146.786 E1.3748
G1 X158.184 Y147.408 E1.4277
G1 X158.250 Y147.626 E1.4458
G1 X158.408 Y148.268 E1.4986
G1 X158.451 Y148.491 E1.5168
G1 X158.547 Y149.184 E1.5726
G1 X158.568 Y149.486 E1.5968
G1 X158.568 Y150.513 E1.6788
G1 X158.547 Y150.816 E1.7029
G1 X158.451 Y151.509 E1.7588
G1 X158.408 Y151.732 E1.7769
G1 X158.250 Y152.374 E1.8297
G1 X158.184 Y152.592 E1.8479
G1 X157.960 Y153.214 E1.9007
G1 X157.872 Y153.424 E1.9188
G1 X157.569 Y154.054 E1.9747
G1 X157.419 Y154.317 E1.9989
G1 X156.829 Y155.204 E2.0839
G1 X156.593 Y155.500 E2.1141
G1 X155.860 Y156.272 E2.1991
G1 X155.637 Y156.477 E2.2233
G1 X155.090 Y156.913 E2.2791
G1 X154.905 Y157.045 E2.2972
G1 X154.316 Y157.423 E2.3531
G1 X154.050 Y157.568 E2.3773
G1 X153.118 Y157.998 E2.4592
G1 X152.834 Y158.105 E2.4834
G1 X152.164 Y158.307 E2.5393
G1 X151.944 Y158.362 E2.5574
G1 X151.257 Y158.494 E2.6132
G1 X150.956 Y158.530 E2.6374
G1 X149.931 Y158.583 E2.7194
G1 X149.628 Y158.578 E2.7436
G1 X148.931 Y158.518 E2.7994
G1 X148.706 Y158.487 E2.8175
G1 X148.056 Y158.362 E2.8704
G1 X147.836 Y158.307 E2.8885
G1 X147.202 Y158.116 E2.9413
G1 X146.988 Y158.039 E2.9595
G1 X146.343 Y157.769 E3.0153
G1 X146.072 Y157.632 E3.0395
G1 X145.189 Y157.109 E3.1215
G1 X144.940 Y156.937 E3.1456
G1 X144.393 Y156.500 E3.2015
G1 X144.223 Y156.350 E3.2196
G1 X143.751 Y155.886 E3.2725
G1 X143.597 Y155.719 E3.2906
G1 X143.176 Y155.208 E3.3434
G1 X143.040 Y155.026 E3.3615
G1 X142.674 Y154.475 E3.4144
G1 X142.558 Y154.280 E3.4325
G1 X142.250 Y153.694 E3.4853
G1 X142.155 Y153.487 E3.5035
G1 X141.910 Y152.873 E3.5563
G1 X141.837 Y152.658 E3.5744
G1 X141.656 Y152.021 E3.6273
G1 X141.606 Y151.799 E3.6454
G1 X141.492 Y151.147 E3.6982
G1 X141.465 Y150.922 E3.7163
G1 X141.417 Y150.224 E3.7722
G1 X141.417 Y149.921 E3.7964
G1 X141.487 Y148.897 E3.8783
G1 X141.529 Y148.597 E3.9025
G1 X141.673 Y147.912 E3.9584
G1 X141.731 Y147.692 E3.9765
G1 X141.934 Y147.062 E4.0293
G1 X142.014 Y146.850 E4.0475
G1 X142.281 Y146.244 E4.1003
G1 X142.383 Y146.041 E4.1184
G1 X142.729 Y145.433 E4.1743
G1 X142.897 Y145.181 E4.1984
G1 X143.523 Y144.367 E4.2804
G1 X143.724 Y144.141 E4.3046
G92 E0.0000
G1 E-5.0000 F2000
; feature outer perimeter
G1 X147.173 Y147.551 F4800
G1 E0.0000 F2000
G92 E0.0000
G1 X147.407 Y147.304 E0.0271 F171
G1 X147.703 Y147.048 E0.0584
G1 X148.023 Y146.825 E0.0896
G1 X148.365 Y146.636 E0.1207
G1 X148.724 Y146.484 E0.1519
G1 X149.098 Y146.370 E0.1830
G1 X149.481 Y146.296 E0.2142
G1 X149.871 Y146.262 E0.2454
G1 X150.213 Y146.266 E0.2728
G1 X150.517 Y146.295 E0.2972
G1 X150.902 Y146.370 E0.3285
G1 X151.277 Y146.484 E0.3597
G1 X151.593 Y146.616 E0.3870
G1 X151.864 Y146.757 E0.4114
G1 X152.193 Y146.970 E0.4427
G1 X152.498 Y147.216 E0.4740
G1 X152.740 Y147.454 E0.5011
G1 X152.991 Y147.755 E0.5324
G1 X153.209 Y148.079 E0.5636
G1 X153.393 Y148.425 E0.5949
G1 X153.510 Y148.707 E0.6193
G1 X153.614 Y149.034 E0.6466
G1 X153.695 Y149.417 E0.6778
G1 X153.735 Y149.806 E0.7091
G1 X153.737 Y150.148 E0.7364
G1 X153.713 Y150.453 E0.7608
G1 X153.645 Y150.839 E0.7921
G1 X153.538 Y151.215 E0.8233
G1 X153.411 Y151.534 E0.8507
G1 X153.275 Y151.807 E0.8750
G1 X153.068 Y152.140 E0.9064
G1 X152.827 Y152.449 E0.9376
G1 X152.593 Y152.696 E0.9648
G1 X152.297 Y152.952 E0.9960
G1 X151.977 Y153.175 E1.0272
G1 X151.634 Y153.365 E1.0585
G1 X151.353 Y153.487 E1.0829
G1 X151.029 Y153.596 E1.1102
G1 X150.648 Y153.684 E1.1415
G1 X150.260 Y153.731 E1.1726
G1 X149.870 Y153.738 E1.2038
G1 X149.480 Y153.704 E1.2350
G1 X149.143 Y153.641 E1.2624
G1 X148.849 Y153.559 E1.2867
G1 X148.483 Y153.419 E1.3180
G1 X148.135 Y153.242 E1.3492
G1 X147.807 Y153.030 E1.3804
G1 X147.502 Y152.784 E1.4116
G1 X147.260 Y152.546 E1.4388
G1 X147.007 Y152.244 E1.4702
G1 X146.834 Y151.992 E1.4946
G1 X146.665 Y151.695 E1.5219
G1 X146.507 Y151.337 E1.5531
G1 X146.386 Y150.965 E1.5843
G1 X146.305 Y150.583 E1.6155
G1 X146.265 Y150.194 E1.6467
G1 X146.263 Y149.852 E1.6740
G1 X146.287 Y149.547 E1.6984
G1 X146.355 Y149.161 E1.7297
G1 X146.462 Y148.785 E1.7610
G1 X146.588 Y148.466 E1.7883
G1 X146.725 Y148.193 E1.8127
G1 X146.932 Y147.860 E1.8440
G1 X147.173 Y147.551 E1.8753
G1 X147.673 Y148.015 F4800
G92 E0.0000
G1 X147.480 Y148.265 E0.0252 F171
G1 X147.315 Y148.535 E0.0505
G1 X147.167 Y148.844 E0.0778
G1 X147.077 Y149.095 E0.0991
G1 X147.010 Y149.353 E0.1204
G1 X146.959 Y149.663 E0.1455
G1 X146.941 Y150.005 E0.1728
G1 X146.953 Y150.274 E0.1943
G1 X146.997 Y150.582 E0.2191
G1 X147.059 Y150.841 E0.2404
G1 X147.143 Y151.095 E0.2617
G1 X147.284 Y151.407 E0.2891
G1 X147.442 Y151.678 E0.3141
G1 X147.599 Y151.896 E0.3355
G1 X147.806 Y152.132 E0.3606
G1 X148.058 Y152.364 E0.3880
G1 X148.273 Y152.525 E0.4094
G1 X148.539 Y152.688 E0.4343
G1 X148.781 Y152.806 E0.4558
G1 X149.102 Y152.924 E0.4831
G1 X149.407 Y153.001 E0.5082
G1 X149.670 Y153.041 E0.5294
G1 X149.936 Y153.059 E0.5507
G1 X150.250 Y153.049 E0.5758
G1 X150.589 Y153.002 E0.6031
G1 X150.850 Y152.939 E0.6246
G1 X151.147 Y152.836 E0.6497
G1 X151.459 Y152.689 E0.6771
G1 X151.727 Y152.525 E0.7023
G1 X151.940 Y152.366 E0.7235
G1 X152.139 Y152.187 E0.7448
G1 X152.370 Y151.935 E0.7722
G1 X152.556 Y151.681 E0.7972
G1 X152.692 Y151.453 E0.8185
G1 X152.809 Y151.213 E0.8398
G1 X152.918 Y150.918 E0.8649
G1 X153.003 Y150.587 E0.8922
G1 X153.042 Y150.322 E0.9135
G1 X153.059 Y150.057 E0.9348
G1 X153.049 Y149.745 E0.9596
G1 X153.015 Y149.478 E0.9811
G1 X152.937 Y149.145 E1.0084
G1 X152.834 Y148.848 E1.0335
G1 X152.723 Y148.606 E1.0548
G1 X152.592 Y148.374 E1.0760
G1 X152.411 Y148.117 E1.1011
G1 X152.186 Y147.859 E1.1285
G1 X151.991 Y147.677 E1.1498
G1 X151.781 Y147.513 E1.1710
G1 X151.519 Y147.344 E1.1959
G1 X151.280 Y147.221 E1.2174
G1 X150.961 Y147.096 E1.2447
G1 X150.658 Y147.012 E1.2698
