; G-Code generated by Simplify3D(R) Version 4.1.2
; Apr 11, 2022 at 9:55:44 PM
; Settings Summary
;   processName,Process1
;   applyToModels,latch_shuttle,[a]_latch
;   profileName,Creality CR-10 (modified)
;   profileVersion,2018-01-19 08:00:00
;   baseProfile,
;   printMaterial,ABS
;   printQuality,High
;   printExtruders,
;   extruderName,Primary Extruder
;   extruderToolheadNumber,0
;   extruderDiameter,0.4
;   extruderAutoWidth,1
;   extruderWidth,0.48
;   extrusionMultiplier,1
;   extruderUseRetract,1
;   extruderRetractionDistance,5
;   extruderExtraRestartDistance,0
;   extruderRetractionZLift,0
;   extruderRetractionSpeed,2000
;   extruderUseCoasting,0
;   extruderCoastingDistance,0.2
;   extruderUseWipe,0
;   extruderWipeDistance,5
;   primaryExtruder,0
;   layerHeight,0.25
;   topSolidLayers,5
;   bottomSolidLayers,5
;   perimeterOutlines,4
;   printPerimetersInsideOut,1
;   startPointOption,2
;   startPointOriginX,0
;   startPointOriginY,0
;   sequentialIslands,0
;   spiralVaseMode,0
;   firstLayerHeightPercentage,100
;   firstLayerWidthPercentage,160
;   firstLayerUnderspeed,0.4
;   useRaft,0
;   raftExtruder,0
;   raftTopLayers,3
;   raftBaseLayers,2
;   raftOffset,3
;   raftSeparationDistance,0.14
;   raftTopInfill,100
;   aboveRaftSpeedMultiplier,0.3
;   useSkirt,1
;   skirtExtruder,0
;   skirtLayers,2
;   skirtOutlines,2
;   skirtOffset,4
;   usePrimePillar,0
;   primePillarExtruder,999
;   primePillarWidth,12
;   primePillarLocation,7
;   primePillarSpeedMultiplier,1
;   useOozeShield,0
;   oozeShieldExtruder,999
;   oozeShieldOffset,2
;   oozeShieldOutlines,1
;   oozeShieldSidewallShape,1
;   oozeShieldSidewallAngle,30
;   oozeShieldSpeedMultiplier,1
;   infillExtruder,0
;   internalInfillPattern,Fast Honeycomb
;   externalInfillPattern,Rectilinear
;   infillPercentage,55
;   outlineOverlapPercentage,15
;   infillExtrusionWidthPercentage,100
;   minInfillLength,5
;   infillLayerInterval,1
;   internalInfillAngles,0
;   overlapInternalInfillAngles,0
;   externalInfillAngles,45,-45
;   generateSupport,0
;   supportExtruder,0
;   supportInfillPercentage,40
;   supportExtraInflation,0
;   supportBaseLayers,0
;   denseSupportExtruder,0
;   denseSupportLayers,0
;   denseSupportInfillPercentage,70
;   supportLayerInterval,1
;   supportHorizontalPartOffset,0.3
;   supportUpperSeparationLayers,1
;   supportLowerSeparationLayers,1
;   supportType,0
;   supportGridSpacing,4
;   maxOverhangAngle,45
;   supportAngles,0
;   temperatureName,Primary Extruder,Heated Bed
;   temperatureNumber,0,0
;   temperatureSetpointCount,1,1
;   temperatureSetpointLayers,1,1
;   temperatureSetpointTemperatures,240,100
;   temperatureStabilizeAtStartup,1,1
;   temperatureHeatedBed,0,1
;   fanLayers,1
;   fanSpeeds,0
;   blipFanToFullPower,0
;   adjustSpeedForCooling,1
;   minSpeedLayerTime,15
;   minCoolingSpeedSlowdown,20
;   increaseFanForCooling,0
;   minFanLayerTime,45
;   maxCoolingFanSpeed,100
;   increaseFanForBridging,0
;   bridgingFanSpeed,100
;   use5D,1
;   relativeEdistances,0
;   allowEaxisZeroing,1
;   independentExtruderAxes,0
;   includeM10123,0
;   stickySupport,1
;   applyToolheadOffsets,0
;   gcodeXoffset,0
;   gcodeYoffset,0
;   gcodeZoffset,0
;   overrideMachineDefinition,1
;   machineTypeOverride,0
;   strokeXoverride,300
;   strokeYoverride,300
;   strokeZoverride,400
;   originOffsetXoverride,0
;   originOffsetYoverride,0
;   originOffsetZoverride,0
;   homeXdirOverride,-1
;   homeYdirOverride,-1
;   homeZdirOverride,-1
;   flipXoverride,1
;   flipYoverride,-1
;   flipZoverride,1
;   toolheadOffsets,0,0|0,0|0,0|0,0|0,0|0,0
;   overrideFirmwareConfiguration,1
;   firmwareTypeOverride,RepRap (Marlin/Repetier/Sprinter)
;   GPXconfigOverride,r2
;   baudRateOverride,115200
;   overridePrinterModels,1
;   printerModelsOverride
;   startingGcode,G28 ; home all axes,G1 Z5 F3000 ; lift,G1 X5 Y10 F1500 ; move to prime,G1 Z0.2 F3000 ; get ready to prime,G92 E0 ; reset extrusion distance,G1 Y80 E10 F600 ; prime nozzle,G1 Y100 F5000 ; quick wipe
;   layerChangeGcode,
;   retractionGcode,
;   toolChangeGcode,
;   endingGcode,G28 X0 ; home x axis,M106 S0 ; turn off cooling fan,M104 S0 ; turn off extruder,M140 S0 ; turn off bed,M84 ; disable motors
;   exportFileFormat,gcode
;   celebration,0
;   celebrationSong,Random Song
;   postProcessing,
;   defaultSpeed,5000
;   outlineUnderspeed,0.5
;   solidInfillUnderspeed,0.8
;   supportUnderspeed,0.8
;   rapidXYspeed,5100
;   rapidZspeed,1000
;   minBridgingArea,50
;   bridgingExtraInflation,0
;   bridgingExtrusionMultiplier,1
;   bridgingSpeedMultiplier,1
;   useFixedBridgingAngle,0
;   fixedBridgingAngle,0
;   applyBridgingToPerimeters,0
;   filamentDiameters,1.75|1.75|1.75|1.75|1.75|1.75
;   filamentPricesPerKg,46|46|46|46|46|46
;   filamentDensities,1.25|1.25|1.25|1.25|1.25|1.25
;   useMinPrintHeight,0
;   minPrintHeight,0
;   useMaxPrintHeight,0
;   maxPrintHeight,0
;   useDiaphragm,0
;   diaphragmLayerInterval,20
;   robustSlicing,1
;   mergeAllIntoSolid,0
;   onlyRetractWhenCrossingOutline,1
;   retractBetweenLayers,1
;   useRetractionMinTravel,0
;   retractionMinTravel,3
;   retractWhileWiping,0
;   onlyWipeOutlines,1
;   avoidCrossingOutline,0
;   maxMovementDetourFactor,3
;   toolChangeRetractionDistance,12
;   toolChangeExtraRestartDistance,-0.5
;   toolChangeRetractionSpeed,600
;   externalThinWallType,0
;   internalThinWallType,2
;   thinWallAllowedOverlapPercentage,10
;   singleExtrusionMinLength,1
;   singleExtrusionMinPrintingWidthPercentage,50
;   singleExtrusionMaxPrintingWidthPercentage,200
;   singleExtrusionEndpointExtension,0.2
;   horizontalSizeCompensation,0
G90
M82
M106 S0
M140 S100
M190 S100
M104 S240 T0
M109 S240 T0
G28 ; home all axes
G1 Z5 F3000 ; lift
G1 X5 Y10 F1500 ; move to prime
G1 Z0.2 F3000 ; get ready to prime
G92 E0 ; reset extrusion distance
G1 Y80 E10 F600 ; prime nozzle
G1 Y100 F5000 ; quick wipe
; process Process1
; layer 1, Z = 0.250
T0
G92 E0.0000
G1 E-5.0000 F2000
; feature skirt
; tool H0.250 W0.768
G1 Z0.250 F1000
G1 X126.412 Y131.506 F5100
G1 E0.0000 F2000
G92 E0.0000
G1 X127.017 Y131.108 E0.0578 F2000
G1 X128.191 Y130.553 E0.1615
G1 X129.028 Y130.318 E0.2308
G1 X130.314 Y130.182 E0.3341
G1 X131.028 Y130.205 E0.3911
G1 X132.601 Y130.477 E0.5185
G1 X133.000 Y129.758 E0.5842
G1 X133.186 Y129.470 E0.6116
G1 X133.715 Y128.758 E0.6824
G1 X133.937 Y128.498 E0.7097
G1 X134.555 Y127.863 E0.7805
G1 X134.810 Y127.634 E0.8078
G1 X135.541 Y127.059 E0.8820
G1 X135.899 Y126.824 E0.9162
G1 X136.990 Y126.228 E1.0155
G1 X137.382 Y126.055 E1.0496
G1 X138.260 Y125.750 E1.1238
G1 X138.590 Y125.660 E1.1512
G1 X139.501 Y125.474 E1.2254
G1 X139.926 Y125.424 E1.2595
G1 X141.170 Y125.381 E1.3588
G1 X141.597 Y125.402 E1.3930
G1 X142.561 Y125.529 E1.4706
G1 X142.979 Y125.620 E1.5048
G1 X144.210 Y125.997 E1.6075
G1 X144.683 Y126.196 E1.6485
G1 X145.774 Y126.788 E1.7476
G1 X146.059 Y126.967 E1.7745
G1 X148.116 Y128.459 E1.9773
G1 X148.222 Y128.540 E1.9879
G1 X149.520 Y129.588 E2.1211
G1 X149.619 Y129.672 E2.1315
G1 X151.219 Y131.103 E2.3028
G1 X151.408 Y131.290 E2.3240
G1 X152.150 Y132.105 E2.4120
G1 X152.335 Y132.334 E2.4355
G1 X153.228 Y133.574 E2.5575
G1 X153.386 Y133.823 E2.5810
G1 X153.917 Y134.772 E2.6678
G1 X154.022 Y134.983 E2.6867
G1 X154.452 Y135.950 E2.7711
G1 X154.537 Y136.170 E2.7899
G1 X154.717 Y136.699 E2.8346
G1 X154.892 Y136.342 E2.8664
G1 X155.420 Y135.581 E2.9403
G1 X155.799 Y135.161 E2.9854
G1 X155.654 Y134.790 E3.0172
G1 X155.452 Y134.050 E3.0785
G1 X155.364 Y133.503 E3.1227
G1 X155.325 Y132.737 E3.1839
G1 X155.356 Y132.186 E3.2280
G1 X155.461 Y131.544 E3.2798
G1 X155.532 Y131.233 E3.3053
G1 X156.009 Y129.618 E3.4397
G1 X156.117 Y129.319 E3.4651
G1 X156.373 Y128.731 E3.5163
G1 X156.642 Y128.256 E3.5599
G1 X157.125 Y127.583 E3.6260
G1 X157.595 Y127.083 E3.6808
G1 X158.427 Y126.406 E3.7664
G1 X159.140 Y125.995 E3.8321
G1 X160.151 Y125.610 E3.9184
G1 X160.836 Y125.451 E3.9746
G1 X161.744 Y125.368 E4.0474
G1 X162.420 Y125.395 E4.1014
G1 X163.257 Y125.539 E4.1692
G1 X163.649 Y125.639 E4.2015
G1 X171.689 Y128.376 E4.8794
G1 X172.128 Y128.573 E4.9179
G1 X172.936 Y129.030 E4.9920
G1 X173.334 Y129.308 E5.0307
G1 X173.943 Y129.824 E5.0944
G1 X174.285 Y130.175 E5.1336
G1 X174.871 Y130.902 E5.2081
G1 X175.139 Y131.309 E5.2470
G1 X175.491 Y131.972 E5.3069
G1 X175.647 Y132.329 E5.3380
G1 X175.873 Y132.972 E5.3924
G1 X175.973 Y133.344 E5.4231
G1 X176.111 Y134.070 E5.4821
G1 X176.156 Y134.556 E5.5211
G1 X176.154 Y135.540 E5.5996
G1 X176.090 Y136.108 E5.6453
G1 X175.460 Y138.879 E5.8721
G1 X175.218 Y140.383 E5.9937
G1 X175.110 Y141.361 E6.0722
G1 X175.039 Y142.341 E6.1507
G1 X175.004 Y143.879 E6.2735
G1 X175.059 Y145.415 E6.3962
G1 X175.142 Y146.395 E6.4747
G1 X175.263 Y147.371 E6.5532
G1 X175.531 Y148.911 E6.6780
G1 X175.747 Y149.870 E6.7564
G1 X176.080 Y151.120 E6.8597
G1 X176.149 Y151.481 E6.8890
G1 X176.249 Y152.331 E6.9574
G1 X176.236 Y153.029 E7.0131
G1 X176.097 Y153.932 E7.0860
G1 X175.899 Y154.601 E7.1417
G1 X175.450 Y155.595 E7.2288
G1 X174.987 Y156.294 E7.2957
G1 X174.245 Y157.093 E7.3827
G1 X173.706 Y157.536 E7.4384
G1 X172.988 Y157.978 E7.5057
G1 X172.486 Y158.217 E7.5501
G1 X163.561 Y161.340 E8.3049
G1 X163.157 Y161.445 E8.3382
G1 X162.292 Y161.598 E8.4083
G1 X161.598 Y161.625 E8.4637
G1 X160.693 Y161.540 E8.5363
G1 X160.017 Y161.382 E8.5918
G1 X159.002 Y160.995 E8.6784
G1 X158.281 Y160.577 E8.7450
G1 X157.387 Y159.844 E8.8372
G1 X156.836 Y159.219 E8.9038
G1 X156.250 Y158.286 E8.9917
G1 X155.954 Y157.623 E9.0497
G1 X155.849 Y157.259 E9.0799
G1 X155.705 Y157.913 E9.1333
G1 X155.663 Y158.073 E9.1466
G1 X156.940 Y159.695 E9.3114
G1 X157.139 Y159.988 E9.3396
G1 X157.830 Y161.168 E9.4487
G1 X157.990 Y161.492 E9.4776
G1 X158.370 Y162.416 E9.5574
G1 X158.464 Y162.690 E9.5805
G1 X158.728 Y163.616 E9.6573
G1 X158.791 Y163.898 E9.6804
G1 X158.948 Y164.844 E9.7570
G1 X158.979 Y165.123 E9.7794
G1 X159.153 Y168.254 E10.0297
G1 X159.150 Y168.599 E10.0573
G1 X159.082 Y169.453 E10.1256
G1 X158.880 Y170.274 E10.1931
G1 X158.392 Y171.409 E10.2917
G1 X157.937 Y172.120 E10.3591
G1 X157.197 Y172.942 E10.4474
G1 X156.537 Y173.469 E10.5149
G1 X155.459 Y174.073 E10.6134
G1 X154.664 Y174.360 E10.6809
G1 X153.827 Y174.515 E10.7489
G1 X153.492 Y174.555 E10.7758
G1 X152.100 Y174.628 E10.8871
G1 X151.650 Y174.612 E10.9230
G1 X150.842 Y174.513 E10.9880
G1 X149.980 Y174.249 E11.0600
G1 X149.053 Y173.777 E11.1430
G1 X148.333 Y173.235 E11.2150
G1 X147.623 Y172.474 E11.2980
G1 X147.132 Y171.717 E11.3700
G1 X146.728 Y170.765 E11.4526
G1 X146.526 Y169.900 E11.5235
G1 X146.503 Y169.502 E11.5553
G1 X146.271 Y169.293 E11.5802
G1 X146.151 Y169.357 E11.5911
G1 X145.771 Y169.522 E11.6241
G1 X144.640 Y169.906 E11.7195
G1 X144.180 Y170.017 E11.7572
G1 X143.086 Y170.175 E11.8455
G1 X142.850 Y170.199 E11.8644
G1 X140.727 Y170.310 E12.0341
G1 X140.213 Y170.285 E12.0752
G1 X139.140 Y170.126 E12.1618
G1 X138.322 Y169.860 E12.2304
G1 X137.401 Y169.380 E12.3134
G1 X136.839 Y168.984 E12.3682
G1 X136.076 Y168.278 E12.4512
G1 X135.551 Y167.598 E12.5198
G1 X134.918 Y166.413 E12.6271
G1 X134.621 Y165.423 E12.7095
G1 X134.516 Y164.270 E12.8020
G1 X134.518 Y163.781 E12.8410
G1 X134.707 Y161.864 E12.9948
G1 X134.879 Y161.161 E13.0526
G1 X135.298 Y160.109 E13.1430
G1 X135.723 Y159.399 E13.2090
G1 X136.882 Y158.022 E13.3526
G1 X138.078 Y157.216 E13.4678
G1 X139.561 Y156.734 E13.5923
G1 X140.620 Y156.663 E13.6770
G1 X141.796 Y154.439 E13.8778
G1 X141.831 Y154.363 E13.8845
G1 X141.839 Y154.153 E13.9012
G1 X141.380 Y145.544 E14.5894
G1 X128.711 Y143.283 E15.6167
G1 X128.022 Y143.057 E15.6746
G1 X126.931 Y142.520 E15.7716
G1 X126.337 Y142.116 E15.8290
G1 X125.554 Y141.406 E15.9133
G1 X125.091 Y140.850 E15.9711
G1 X124.446 Y139.807 E16.0690
G1 X124.154 Y139.145 E16.1268
G1 X123.888 Y138.194 E16.2056
G1 X123.795 Y137.623 E16.2517
G1 X123.746 Y136.638 E16.3305
G1 X123.812 Y135.917 E16.3883
G1 X124.110 Y134.652 E16.4920
G1 X124.448 Y133.852 E16.5614
G1 X125.146 Y132.756 E16.6650
G1 X125.617 Y132.207 E16.7228
G1 X126.412 Y131.506 E16.8074
G92 E0.0000
G1 E-5.0000 F2000
G1 X127.394 Y131.779 F5100
G1 E0.0000 F2000
G92 E0.0000
G1 X128.461 Y131.274 E0.0942 F2000
G1 X129.173 Y131.075 E0.1532
G1 X130.342 Y130.951 E0.2471
G1 X130.950 Y130.971 E0.2956
G1 X133.056 Y131.336 E0.4662
G1 X133.133 Y131.139 E0.4831
G1 X133.255 Y130.881 E0.5059
G1 X133.659 Y130.153 E0.5724
G1 X133.817 Y129.908 E0.5956
G1 X134.316 Y129.237 E0.6624
G1 X134.505 Y129.015 E0.6856
G1 X135.088 Y128.417 E0.7523
G1 X135.304 Y128.222 E0.7756
G1 X135.990 Y127.683 E0.8452
G1 X136.295 Y127.483 E0.8743
G1 X137.330 Y126.917 E0.9685
G1 X137.663 Y126.770 E0.9976
G1 X138.488 Y126.484 E1.0672
G1 X138.768 Y126.407 E1.0904
G1 X139.623 Y126.233 E1.1600
G1 X139.985 Y126.191 E1.1891
G1 X141.164 Y126.150 E1.2833
G1 X141.528 Y126.167 E1.3124
G1 X142.429 Y126.286 E1.3849
G1 X142.785 Y126.364 E1.4140
G1 X143.948 Y126.721 E1.5111
G1 X144.351 Y126.890 E1.5460
G1 X145.386 Y127.451 E1.6400
G1 X145.629 Y127.604 E1.6629
G1 X147.657 Y129.075 E1.8629
G1 X147.747 Y129.144 E1.8719
G1 X149.030 Y130.179 E2.0036
G1 X149.115 Y130.251 E2.0124
G1 X150.692 Y131.662 E2.1814
G1 X150.853 Y131.821 E2.1994
G1 X151.567 Y132.606 E2.2841
G1 X151.725 Y132.800 E2.3041
G1 X152.592 Y134.005 E2.4226
G1 X152.726 Y134.216 E2.4426
G1 X153.238 Y135.132 E2.5263
G1 X153.327 Y135.311 E2.5423
G1 X153.743 Y136.246 E2.6239
G1 X153.816 Y136.433 E2.6399
G1 X154.144 Y137.402 E2.7216
G1 X154.200 Y137.594 E2.7376
G1 X154.438 Y138.590 E2.8193
G1 X154.476 Y138.786 E2.8353
G1 X154.623 Y139.799 E2.9170
G1 X154.642 Y139.999 E2.9330
G1 X154.698 Y141.057 E3.0176
G1 X154.727 Y140.502 E3.0620
G1 X154.733 Y140.427 E3.0680
G1 X154.883 Y138.713 E3.2054
G1 X154.976 Y138.247 E3.2433
G1 X155.264 Y137.329 E3.3201
G1 X155.556 Y136.732 E3.3732
G1 X156.023 Y136.059 E3.4386
G1 X156.394 Y135.647 E3.4828
G1 X156.743 Y135.346 E3.5196
G1 X156.555 Y134.986 E3.5520
G1 X156.384 Y134.548 E3.5895
G1 X156.204 Y133.887 E3.6442
G1 X156.129 Y133.422 E3.6818
G1 X156.094 Y132.739 E3.7364
G1 X156.120 Y132.270 E3.7739
G1 X156.215 Y131.692 E3.8206
G1 X156.276 Y131.428 E3.8423
G1 X156.739 Y129.858 E3.9729
G1 X156.831 Y129.604 E3.9945
G1 X157.061 Y129.075 E4.0406
G1 X157.290 Y128.671 E4.0777
G1 X157.719 Y128.072 E4.1365
G1 X158.119 Y127.647 E4.1831
G1 X158.864 Y127.041 E4.2597
G1 X159.471 Y126.691 E4.3156
G1 X160.375 Y126.346 E4.3929
G1 X160.958 Y126.211 E4.4406
G1 X161.764 Y126.137 E4.5052
G1 X162.339 Y126.160 E4.5512
G1 X163.096 Y126.291 E4.6125
G1 X163.430 Y126.376 E4.6400
G1 X171.407 Y129.091 E5.3126
G1 X171.781 Y129.259 E5.3454
G1 X172.527 Y129.681 E5.4137
G1 X172.865 Y129.917 E5.4467
G1 X173.419 Y130.386 E5.5046
G1 X173.710 Y130.685 E5.5379
G1 X174.249 Y131.355 E5.6066
G1 X174.478 Y131.702 E5.6398
G1 X174.799 Y132.306 E5.6944
G1 X174.932 Y132.610 E5.7209
G1 X175.138 Y133.199 E5.7707
G1 X175.223 Y133.515 E5.7968
G1 X175.349 Y134.177 E5.8506
G1 X175.388 Y134.591 E5.8838
G1 X175.386 Y135.496 E5.9560
G1 X175.332 Y135.980 E5.9949
G1 X174.706 Y138.733 E6.2203
G1 X174.457 Y140.280 E6.3453
G1 X174.345 Y141.291 E6.4265
G1 X174.272 Y142.305 E6.5077
G1 X174.236 Y143.884 E6.6337
G1 X174.292 Y145.462 E6.7598
G1 X174.378 Y146.475 E6.8410
G1 X174.504 Y147.484 E6.9222
G1 X174.778 Y149.061 E7.0499
G1 X175.001 Y150.053 E7.1311
G1 X175.330 Y151.291 E7.2333
G1 X175.389 Y151.598 E7.2583
G1 X175.480 Y152.370 E7.3203
G1 X175.469 Y152.963 E7.3677
G1 X175.346 Y153.763 E7.4323
G1 X175.177 Y154.333 E7.4797
G1 X174.776 Y155.223 E7.5577
G1 X174.382 Y155.817 E7.6146
G1 X173.717 Y156.533 E7.6925
G1 X173.258 Y156.909 E7.7399
G1 X172.620 Y157.303 E7.7997
G1 X172.193 Y157.506 E7.8375
G1 X163.337 Y160.605 E8.5865
G1 X162.993 Y160.694 E8.6149
G1 X162.210 Y160.832 E8.6783
G1 X161.619 Y160.856 E8.7255
G1 X160.817 Y160.780 E8.7898
G1 X160.242 Y160.646 E8.8370
G1 X159.333 Y160.300 E8.9146
G1 X158.720 Y159.944 E8.9712
G1 X157.922 Y159.290 E9.0535
G1 X157.453 Y158.758 E9.1101
G1 X156.929 Y157.924 E9.1888
G1 X156.677 Y157.359 E9.2381
G1 X156.149 Y155.521 E9.3908
G1 X156.123 Y155.419 E9.3992
G1 X155.601 Y153.206 E9.5807
G1 X155.578 Y153.095 E9.5897
